X: 69
T:Iomramh eadar Il'as Uist
T:Rowing from Islay to Uist
S:Rebecca Knorr
Z:Jack Campin
Z:Transposed from BMin by Gordon Turnbull
D:Ossian, St. Kilda Wedding
B:Simon Fraser Collection?
M:6/8
L:1/8
K:AMin
E|A2A c2d|B2A B2d|A2A e2e|fed e2B|
c2c d2c|B2A B2d|fed e2B|[1 c2A GA:|[2 A2B c2|]
G|E2E E2D|E2E c2d|B2A G2E|D2C D2F|
E2E E2D|E2E c2d|B2A G2B|A3- A2:|
<end>
<start>
